!!!COM: Palestrina, Giovanni Perluigi da
!!!OPR: Beatus Laurentius
!!!OTL: Sanctus
**kern	**kern	**kern	**kern	**kern
*Ibass	*Itenor	*Itenor	*Icalto	*Icant
!Bassus	!Tenor 2	!Tenor 1	!Altus	!Cantus
*clefF4	*clefGv2	*clefGv2	*clefG2	*clefG2
*k[]	*k[]	*k[]	*k[]	*k[]
*G:mix	*G:mix	*G:mix	*G:mix	*G:mix
*M4/2	*M4/2	*M4/2	*M4/2	*M4/2
=1	=1	=1	=1	=1
0r	0r	1r	0r	0g
.	.	[1c	.	.
=2	=2	=2	=2	=2
0r	0r	1c]	0r	1g
.	.	1c	.	1cc
=3	=3	=3	=3	=3
0r	0r	2.f	1r	1a
.	.	4d	.	.
.	.	4e	[1c	1g
.	.	4f	.	.
.	.	2e	.	.
=4	=4	=4	=4	=4
0r	0r	4A	1c]	1a
.	.	4B	.	.
.	.	4c	.	.
.	.	4d	.	.
.	.	4e	1c	2.g
.	.	4f	.	.
.	.	2e	.	.
.	.	.	.	4a
=5	=5	=5	=5	=5
0r	1r	2.d	1f	2b-
.	.	.	.	2.a
.	.	4c	.	.
.	2r	1B	1d	.
.	.	.	.	4g
.	2G	.	.	[2g
=6	=6	=6	=6	=6
0r	2A	1A	1c	2g]
.	1c	.	.	2f#
.	.	2G	1d	1g
.	2B	[2g	.	.
=7	=7	=7	=7	=7
1r	1A	2g]	2.c	2r
.	.	2f#	.	1cc
.	.	.	4d	.
[1G	2G	[1g	2e	.
.	[2g	.	[2d	4b
.	.	.	.	4a
=8	=8	=8	=8	=8
1G]	4g]	1g]	2d]	2b
.	4f	.	.	.
.	2e	.	1c	2cc
1G	2d	2r	.	1dd
.	[2g	2d	2B	.
=9	=9	=9	=9	=9
1c	4g]	2e	2c	0cc
.	4f	.	.	.
.	4e	1g	2g	.
.	4d	.	.	.
1A	1c	.	2a	.
.	.	2f	[2cc	.
=10	=10	=10	=10	=10
1G	2.g	2e	2cc]	0r
.	.	2.d	2b	.
.	4f	.	.	.
1A	2e	.	2a	.
.	.	4c	.	.
.	2c	[2c	2f	.
=11	=11	=11	=11	=11
1G	1d	2c]	2.g	0r
.	.	2B	.	.
.	.	.	4f	.
2.A	2.c	[1c	4e	.
.	.	.	4d	.
.	.	.	[2e	.
8G	8B	.	.	.
8F	8A	.	.	.
=12	=12	=12	=12	=12
2E	2G	1c]	4e]	2r
.	.	.	4d	.
2F	2A	.	1c	2cc
1D	1F	2r	.	2dd
.	.	2d	2B	[2ff
=13	=13	=13	=13	=13
1C	0G	1e	2c	2ff]
.	.	.	1cc	2ee
2r	.	2.g	.	1dd
2G	.	.	2b	.
.	.	4f	.	.
=14	=14	=14	=14	=14
2A	2r	1e	2a	2cc
1c	2c	.	2g	1ee
.	2e	2c	2c	.
2B	2g	2G	4d	[2dd
.	.	.	4e	.
=15	=15	=15	=15	=15
2.A	2f	2A	4f	2dd]
.	.	.	4g	.
.	2e	1c	1a	2cc
4G	.	.	.	.
2F	[1d	.	.	[1dd
2G	.	2B	[2g	.
=16	=16	=16	=16	=16
0D	0d]	0A	2g]	0dd]
.	.	.	4f#	.
.	.	.	4e	.
.	.	.	1f#	.
=17	=17	=17	=17	=17
0G	2.B	1G	2g	2r
.	.	.	1b	1dd
.	4c	.	.	.
.	1d	1g	.	.
.	.	.	2g	2b
=18	=18	=18	=18	=18
0r	2r	2g	1b	1dd
.	1g	2G	.	.
.	.	1c	1cc	1ee
.	2e	.	.	.
=19	=19	=19	=19	=19
0r	1g	1G	1b	2dd
.	.	.	.	1ee
.	1a	1r	[1cc	.
.	.	.	.	4dd
.	.	.	.	4cc
=20	=20	=20	=20	=20
2r	2.g	0r	2cc]	2ee
1G	.	.	4b	2dd
.	4f	.	4a	.
.	4e	.	2b	2g
.	4d	.	.	.
2E	[2e	.	2g	[2cc
=21	=21	=21	=21	=21
1G	2e]	0r	2.g	2cc]
.	2.d	.	.	2b
.	.	.	4f	.
1A	.	.	2e	2.cc
.	4c	.	.	.
.	[2c	.	2f#	.
.	.	.	.	4dd
=22	=22	=22	=22	=22
1G	2c]	2r	0g	2ee
.	4B	1d	.	2dd
.	4A	.	.	.
2.G	2.B	.	.	[1dd
.	.	2B	.	.
8F#	8A	.	.	.
8E	8G	.	.	.
=23	=23	=23	=23	=23
2F#	2A	1d	2r	1dd]
2G	2B	.	1g	.
[1C	2.c	[1e	.	1r
.	.	.	2e	.
.	4d	.	.	.
=24	=24	=24	=24	=24
1C]	4e	1e]	1g	1r
.	4f	.	.	.
.	1g	.	.	.
1r	.	2.d	1a	2r
.	2f#	.	.	[2dd
.	.	4c	.	.
=25	=25	=25	=25	=25
0r	2r	2B	1g	2dd]
.	1g	2e	.	2b
.	.	1d	1a	1dd
.	2f#	.	.	.
=26	=26	=26	=26	=26
0r	2g	0c	1.cc	0ee
.	1a	.	.	.
.	2g	.	2b	.
=27	=27	=27	=27	=27
0r	2f#	0d	2a	1dd
.	1g	.	2b	.
.	.	.	1a	1dd
.	2f#	.	.	.
=28	=28	=28	=28	=28
2r	4g	2.e	1g	2b
.	4f	.	.	.
1c	4e	.	.	4cc
.	4d	4f	.	4dd
.	1c	2g	[1cc	4ee
.	.	.	.	4cc
2A	.	[2a	.	[2ff
=29	=29	=29	=29	=29
1c	0r	2a]	1cc]	4ff]
.	.	.	.	4ee
.	.	2g	.	1ee
1d	.	1f	1a	.
.	.	.	.	2dd
=30	=30	=30	=30	=30
2.c	2r	2e	1cc	2.ee
.	1g	2c	.	.
8B	.	.	.	4ff
8A	.	.	.	.
2G	.	2d	4b	2gg
.	.	.	4a	.
[2c	2e	2e	4g	[2g
.	.	.	4f	.
=31	=31	=31	=31	=31
2c]	1g	2c	2e	4g]
.	.	.	.	4a
2B	.	2d	2d	2b
2A	1a	2e	1c	2cc
2F	.	2f	.	2a
=32	=32	=32	=32	=32
0G	2g	2d	2r	2b
.	2e	1g	2G	1cc
.	1d	.	1g	.
.	.	2d	.	2b
=33	=33	=33	=33	=33
0C	1c	0e	1g	1cc
.	2r	.	2r	2r
.	2c	.	2cc	2ee
=34	=34	=34	=34	=34
0r	2g	0r	2b	2dd
.	2c	.	2cc	2ee
.	1d	.	1a	1ff#
=35	=35	=35	=35	=35
1c	2.e	2r	0g	0gg
.	.	2e	.	.
.	4f	.	.	.
2B	4g	2d	.	.
.	4f	.	.	.
2c	4e	2e	.	.
.	4d	.	.	.
=36	=36	=36	=36	=36
1A	1c	1f#	2r	1r
.	.	.	1cc	.
1G	1d	2g	.	2r
.	.	4g	4b	[2gg
.	.	4f	4a	.
=37	=37	=37	=37	=37
0r	0r	4e	2b	4gg]
.	.	4d	.	4ff
.	.	4c	2.cc	4ee
.	.	4B	.	4dd
.	.	4A	.	2ee
.	.	4G	4b	.
.	.	4F	4a	[2ff
.	.	4E	4g	.
=38	=38	=38	=38	=38
0r	0r	2F	2a	2ff]
.	.	2G	2g	1ee
.	.	2A	1f	.
.	.	2B	.	2dd
=39	=39	=39	=39	=39
2r	1r	2.c	2.e	2ee
1c	.	.	.	1ee
.	.	8B	4f	.
.	.	8A	.	.
.	2r	1G	1g	.
4B	[2g	.	.	4dd
4A	.	.	.	4cc
=40	=40	=40	=40	=40
2B	4g]	1r	0r	2dd
.	4f	.	.	.
2.c	4e	.	.	2.ee
.	4d	.	.	.
.	2e	2.A	.	.
4B	.	.	.	4dd
4A	[2f	.	.	4cc
4G	.	4B	.	4b
=41	=41	=41	=41	=41
2A	4f]	2c	0r	2a
.	4e	.	.	.
2G	1e	2B	.	2b
1F	.	1A	.	2cc
.	2d	.	.	2dd
=42	=42	=42	=42	=42
2E	2e	2B	2r	2g
1C	1e	1c	1g	1cc
2G	2d	2d	2g	2b
=43	=43	=43	=43	=43
1C	2.c	2.e	2.g	2cc
.	.	.	.	2.gg
.	4d	4f	4f	.
2.c	4e	1g	4e	.
.	4f	.	4d	4ff
.	2g	.	4c	4ee
4B	.	.	4d	4dd
=44	=44	=44	=44	=44
4A	0a	2r	2e	4cc
4G	.	.	.	4b
1F	.	2c	2.f	1a
.	.	2A	.	.
.	.	.	4e	.
2D	.	[2a	4f	[2ff
.	.	.	4g	.
=45	=45	=45	=45	=45
2.F	0A	4a]	1a	4ff]
.	.	4g	.	4ee
.	.	2f	.	1dd
4G	.	.	.	.
1A	.	1e	1a	.
.	.	.	.	2cc#
=46	=46	=46	=46	=46
1B-	2r	1d	2r	1dd
.	2d	.	2f	.
1F	2f	1r	2a	2r
.	[2a	.	[2cc	2cc
=47	=47	=47	=47	=47
0r	2a]	0r	2cc]	2ee
.	2g	.	2b	2gg
.	2d	.	2a	2ff
.	2c	.	[2cc	2ee
=48	=48	=48	=48	=48
0r	2.e	2r	4cc]	2.gg
.	.	.	4b	.
.	.	2c	2.g	.
.	4f	.	.	4ff
.	1g	2e	.	2ee
.	.	.	4a	.
.	.	2g	4b	4dd
.	.	.	4g	4cc
=49	=49	=49	=49	=49
0r	0r	2f	4a	2dd
.	.	.	4b	.
.	.	2e	1cc	2ee
.	.	1g	.	1dd
.	.	.	2b	.
=50	=50	=50	=50	=50
2r	2r	1a	2.cc	2r
2F	2f	.	.	2a
.	.	.	4b	.
2A	1e	2r	2a	2cc
2c	.	2c	2g	2ee
=51	=51	=51	=51	=51
2B	2g	2d	2b	2dd
2A	1a	2f	1cc	2cc
1c	.	2e	.	1ee
.	[2g	2e	2b	.
=52	=52	=52	=52	=52
1d	2g]	2f	1a	1dd
.	2f	1d	.	.
[1G	2.g	.	[1g	2.b
.	.	2G	.	.
.	8f	.	.	4cc
.	8e	.	.	.
=53	=53	=53	=53	=53
1G]	2d	2B	1g]	2dd
.	2G	2d	.	2b
2r	2A	1c	1e	2cc
2C	2c	.	.	[2ee
=54	=54	=54	=54	=54
2E	1G	2.B	2g	2ee]
2G	.	.	2d	1dd
.	.	4c	.	.
2F	1r	2d	2a	.
2E	.	2e	2g	[2cc
=55	=55	=55	=55	=55
1G	1r	1d	1g	2cc]
.	.	.	.	2b
2.A	2r	2c	2e	1cc
.	2F	2f	[2c	.
4B	.	.	.	.
=56	=56	=56	=56	=56
2c	2A	1e	2c]	2r
2C	2c	.	2e	2g
2G	2B	1d	2g	2b
2D	2A	.	2f	2dd
=57	=57	=57	=57	=57
1A	1c	2r	1e	1cc
.	.	2A	.	.
1G	1d	2B	[1g	1b
.	.	2G	.	.
=58	=58	=58	=58	=58
0D	[0d	0A	2g]	2.dd
.	.	.	4f#	.
.	.	.	4e	8cc
.	.	.	.	8b
.	.	.	1f#	1a
=59	=59	=59	=59	=59
0G	0d]	0G	0g	0b
==	==	==	==	==
*-	*-	*-	*-	*-
!!!CDT: 1525/^1526/-1594/2/2
!!!OCY: Italia
!!!AGN: Mass (Paraphrase)
!!!AST: renaissance, vocal
!!!ASW: Antiphon
!!!PWK: Masses, Book 8
!!!RNB: Cadence finals: C
!!!YOR: Le Opere Complete, v. 24, p. 194
!!!YOO: Rome, Italy: Fratelli Scalera
!!!END: 1992//
!!!EED: John Miller
!!!YEC: Copyright 2000, John Miller
!!!YEN: United States of America
!!!YEM: Rights to all derivative electronic formats reserved.
!!!YEM: Refer to licensing agreement for further details.
!!!YEM: This file must be accompanied by the licensing agreement.
!!!YEM: A copy of the licensing agreement may be found at http://www.music-cog.ohio-state.edu/HumdrumDatabases/Palestrina/license.txt
!!!EMD: converted to Humdrum by Bret Aarden
